Suru++-Ubuntu/apps/symbolic/etcher-electron-symbolic.svg

<svg width="16" height="16" style="isolation:isolate" viewBox="0 0 16 16" xmlns="http://www.w3.org/2000/svg">
 <path d="m0 8c0-4.415 3.585-8 8-8s8 3.585 8 8-3.585 8-8 8-8-3.585-8-8zm5 0c0-1.656 1.344-3 3-3s3 1.344 3 3-1.344 3-3 3-3-1.344-3-3z" fill="#808080" fill-rule="evenodd"/>
</svg>

<svg xmlns="http://www.w3.org/2000/svg" style="isolation:isolate" width="16" height="16" viewBox="0 0 16 16">
 <path fill="#808080" fill-rule="evenodd" d="M 0 8 C 0 3.585 3.585 0 8 0 C 12.415 0 16 3.585 16 8 C 16 12.415 12.415 16 8 16 C 3.585 16 0 12.415 0 8 Z M 5 8 C 5 6.344 6.344 5 8 5 C 9.656 5 11 6.344 11 8 C 11 9.656 9.656 11 8 11 C 6.344 11 5 9.656 5 8 Z"/>
</svg>
